assets/exchange.svg

<svg fill="none" height="14" viewBox="0 0 10 14" width="10" xmlns="http://www.w3.org/2000/svg"><path clip-rule="evenodd" d="m.862766 8.56104h8.396804c.20426.00106.38086.0734.52447.21702.14256.14362.21596.32021.21596.5234s-.07234.37873-.21596.52341l-3.95851 3.95853c-.28936.2893-.76064.2883-1.04681 0-.14361-.1436-.21702-.3192-.21808-.5234.00106-.2043.07447-.3798.21808-.5234l2.69468-2.6947h-6.60957c-.202128 0-.37766-.07235-.522341-.21597-.144681-.14468-.217021-.32128-.217021-.52447 0-.20425.072341-.37978.215957-.5234.145746-.14362.321277-.21596.522341-.21702zm-.122342-2.19381c-.2 0-.380851-.07553-.523404-.21702-.1425533-.14256-.21702095-.32341-.21702095-.52341 0-.20106.07446765-.38191.21702095-.5234l3.95851-3.95958c.14149-.14042.32234-.215954.52341-.215954.20319 0 .37978.073404.5234.215954.14362.14468.21702.32022.21702.52447 0 .20426-.0734.38085-.21702.52341l-2.69468 2.69468h6.59894c.20425.00106.37978.0734.5234.21702.14149.14149.21702.32234.21702.5234 0 .2-.07553.38085-.21702.52341-.14468.14361-.32021.21702-.5234.21702z" fill="#018bb2" fill-rule="evenodd"/></svg>

<svg width="10" height="14" viewBox="0 0 10 14" fill="none" xmlns="http://www.w3.org/2000/svg">
<path fill-rule="evenodd" clip-rule="evenodd" d="M0.862766 8.56104H9.25957C9.46383 8.5621 9.64043 8.63444 9.78404 8.77806C9.9266 8.92168 10 9.09827 10 9.30146C10 9.50465 9.92766 9.68019 9.78404 9.82487L5.82553 13.7834C5.53617 14.0727 5.06489 14.0717 4.77872 13.7834C4.63511 13.6398 4.5617 13.4642 4.56064 13.26C4.5617 13.0557 4.63511 12.8802 4.77872 12.7366L7.4734 10.0419H0.86383C0.661702 10.0419 0.48617 9.96955 0.341489 9.82593C0.196808 9.68125 0.124468 9.50465 0.124468 9.30146C0.124468 9.09721 0.196809 8.92168 0.340425 8.77806C0.486171 8.63444 0.661702 8.5621 0.862766 8.56104ZM0.740424 6.36723C0.540424 6.36723 0.359573 6.2917 0.21702 6.15021C0.0744667 6.00765 -9.53674e-07 5.8268 -9.53674e-07 5.6268C-9.53674e-07 5.42574 0.0744667 5.24489 0.21702 5.1034L4.17553 1.14382C4.31702 1.0034 4.49787 0.927866 4.69894 0.927866C4.90213 0.927866 5.07872 1.00127 5.22234 1.14382C5.36596 1.2885 5.43936 1.46404 5.43936 1.66829C5.43936 1.87255 5.36596 2.04914 5.22234 2.1917L2.52766 4.88638H9.1266C9.33085 4.88744 9.50638 4.95978 9.65 5.1034C9.79149 5.24489 9.86702 5.42574 9.86702 5.6268C9.86702 5.8268 9.79149 6.00765 9.65 6.15021C9.50532 6.29382 9.32979 6.36723 9.1266 6.36723H0.740424Z" fill="#018BB2"/>
</svg>
